packages/ui/public/icons/sidebar-creator-tools-icon.svg

<svg width="22" height="22" viewBox="0 0 22 22" fill="none" xmlns="http://www.w3.org/2000/svg">
  <path opacity="0.4" d="M20.1668 9.16699H1.8335" stroke="gray" stroke-opacity="0.923" stroke-width="2" />
  <path d="M10.0833 17.4167H17.2333C18.26 17.4167 18.7734 17.4167 19.1656 17.2168C19.5105 17.0411 19.791 16.7606 19.9668 16.4157C20.1666 16.0235 20.1666 15.5101 20.1666 14.4833V7.51667C20.1666 6.48991 20.1666 5.97652 19.9668 5.58435C19.791 5.23939 19.5105 4.95893 19.1656 4.78316C18.7734 4.58333 18.26 4.58333 17.2333 4.58333H15.5833M10.0833 17.4167L11.9166 19.25M10.0833 17.4167L11.9166 15.5833M6.41659 17.4167H4.76658C3.73982 17.4167 3.22644 17.4167 2.83427 17.2168C2.4893 17.0411 2.20884 16.7606 2.03308 16.4157C1.83325 16.0235 1.83325 15.5101 1.83325 14.4833V7.51667C1.83325 6.48991 1.83325 5.97652 2.03308 5.58435C2.20884 5.23938 2.48931 4.95892 2.83427 4.78316C3.22644 4.58333 3.73983 4.58333 4.76658 4.58333H11.9166M11.9166 4.58333L10.0833 6.41667M11.9166 4.58333L10.0833 2.75" stroke-linecap="round" stroke-linejoin="round" />
</svg>

<svg width="22" height="22" fill="none" xmlns="http://www.w3.org/2000/svg"><path opacity=".4" d="M20.167 9.167H1.833" stroke="gray" stroke-opacity=".923" stroke-width="2"/><path d="M10.083 17.417h7.15c1.027 0 1.54 0 1.933-.2.345-.176.625-.456.8-.801.2-.393.2-.906.2-1.933V7.517c0-1.027 0-1.54-.2-1.933a1.834 1.834 0 0 0-.8-.8c-.393-.2-.906-.2-1.933-.2h-1.65m-5.5 12.833 1.834 1.833m-1.834-1.833 1.834-1.834m-5.5 1.834h-1.65c-1.027 0-1.54 0-1.933-.2a1.833 1.833 0 0 1-.8-.801c-.2-.393-.2-.906-.2-1.933V7.517c0-1.027 0-1.54.2-1.933.175-.345.455-.625.8-.8.392-.2.906-.2 1.933-.2h7.15m0 0-1.834 1.833m1.834-1.834L10.083 2.75"/></svg>
